storage/app/icons/tabler/filled/mood-happy.svg

<!--
version: "2.9"
unicode: "f7f4"
-->
<svg
  xmlns="http://www.w3.org/2000/svg"
  width="24"
  height="24"
  viewBox="0 0 24 24"
  fill="currentColor"
>
  <path d="M17 3.34a10 10 0 1 1 -14.995 8.984l-.005 -.324l.005 -.324a10 10 0 0 1 14.995 -8.336zm-2 9.66h-6a1 1 0 0 0 -1 1v.05a3.975 3.975 0 0 0 3.777 3.97l.227 .005a4.026 4.026 0 0 0 3.99 -3.79l.006 -.206a1 1 0 0 0 -1 -1.029zm-5.99 -5l-.127 .007a1 1 0 0 0 .117 1.993l.127 -.007a1 1 0 0 0 -.117 -1.993zm6 0l-.127 .007a1 1 0 0 0 .117 1.993l.127 -.007a1 1 0 0 0 -.117 -1.993z" />
</svg>

<svg xmlns="http://www.w3.org/2000/svg" width="24" height="24" fill="currentColor" viewBox="0 0 24 24"><path d="M17 3.34a10 10 0 1 1-14.995 8.984L2 12l.005-.324A10 10 0 0 1 17 3.34M15 13H9a1 1 0 0 0-1 1v.05a3.975 3.975 0 0 0 3.777 3.97l.227.005a4.026 4.026 0 0 0 3.99-3.79l.006-.206A1 1 0 0 0 15 13M9.01 8l-.127.007A1 1 0 0 0 9 10l.127-.007A1 1 0 0 0 9.01 8m6 0-.127.007A1 1 0 0 0 15 10l.127-.007A1 1 0 0 0 15.01 8"/></svg>
